X:95
T:Parting Lovers THO4.95, The
M:6/8
L:1/8
Z:vmp. Peter Dunk 2010/11.from a transcription by Fynn Titford-Mock 2007
B:Thompson's Compleat Collection of 200 Favourite Country Dances Volume IV.
Q:3/8=110
K:G
G2 B G2 c|B2 d c2 e|def gfe|dcB AGF|\
G2 B G2 c|B2 d c2 e|dcB AGF|G3G,3:|
|:g2 e f2 d|g2 e f2 d|gfe agf|efd ^cBA|\
g2 e f2 d|g2 e f2 d|efd ^cBA|d3D3|
G2 B G2 c|B2 d c2 e|def gfe|dcB AGF|\
G2 B G2 c|B2 d c2 e|dcB AGF|G3G,3:|
